!!!COM: Palestrina, Giovanni Perluigi da
!!!OPR: Missa In duplicibus minoribus (II)
!!!OMD: Credo
!!!OTL: Et ex Patre
**kern	**kern	**kern	**kern	**kern
*Ibass	*Itenor	*Itenor	*Icalto	*Icant
!Bassus	!Tenor 2	!Tenor 1	!Altus	!Cantus
*clefF4	*clefGv2	*clefGv2	*clefG2	*clefG2
*k[]	*k[]	*k[]	*k[]	*k[]
*E:phr	*E:phr	*E:phr	*E:phr	*E:phr
*M4/2	*M4/2	*M4/2	*M4/2	*M4/2
=23	=23	=23	=23	=23
1.E	0r	1r	0r	0r
.	.	[1B	.	.
2D	.	.	.	.
=24	=24	=24	=24	=24
2G	0r	2B]	0r	0r
2F	.	2A	.	.
4E	.	2c	.	.
4F	.	.	.	.
4G	.	2B	.	.
4E	.	.	.	.
=25	=25	=25	=25	=25
1F	2.A	1d	2r	1r
.	.	.	1A	.
.	4B	.	.	.
1E	2c	1e	.	2r
.	2B	.	2G	[2e
=26	=26	=26	=26	=26
0r	4A	0r	2c	2e]
.	4E	.	.	.
.	2G	.	2B	2d
.	2D	.	4A	2f
.	.	.	4B	.
.	2A	.	4c	2e
.	.	.	4A	.
=27	=27	=27	=27	=27
0r	1E	2r	1B	1g
.	.	1e	.	.
.	2r	.	1A	2.a
.	[2e	2c	.	.
.	.	.	.	8g
.	.	.	.	8f
=28	=28	=28	=28	=28
1E	2e]	2B	0r	[0g
.	2c	2e	.	.
[1G	2B	2d	.	.
.	2e	[2c	.	.
=29	=29	=29	=29	=29
1G]	2d	2c]	1r	1g]
.	2.e	2B	.	.
[1A	.	1c	2r	2r
.	4d	.	.	.
.	4c	.	2A	[2e
.	4B	.	.	.
=30	=30	=30	=30	=30
2A]	2A	2r	2c	2e]
2G	2B	2B	2.d	2g
1F	1A	1d	.	[1a
.	.	.	4c	.
.	.	.	2A	.
=31	=31	=31	=31	=31
1E	0r	2e	2B	2a]
.	.	2e	2c	2g
1D	.	1A	2.d	1f
.	.	.	4c	.
=32	=32	=32	=32	=32
1E	1r	0G	4B	1e
.	.	.	4G	.
.	.	.	1c	.
1r	2r	.	.	1d
.	[2G	.	2B	.
=33	=33	=33	=33	=33
1.C	2G]	1E	1c	[0e
.	4F	.	.	.
.	4E	.	.	.
.	2G	2E	[1e	.
4BB	2A	[2c	.	.
4AA	.	.	.	.
=34	=34	=34	=34	=34
2.C	[0E	2c]	2e]	0e]
.	.	4B	4d	.
4D	.	4A	4c	.
2E	.	2G#	2B	.
2AA	.	2A	2c	.
=35	=35	=35	=35	=35
[0E	1E_	[0G#	[0B	[0e
.	1E_	.	.	.
=36	=36	=36	=36	=36
0E]	0E]	0G#]	0B]	0e]
*-	*-	*-	*-	*-
!!!CDT: 1525/^1526/-1594/2/2
!!!OCY: Italia
!!!AGN: Mass (Paraphrase)
!!!AST: renaissance, vocal
!!!ASW: Gregorian Mass
!!!PWK: Masses, Book Mantuan I
!!!RNB: Cadence finals: A
!!!YOR: Le Opere Complete, v. 18, p. 1
!!!YOO: Rome, Italy: Fratelli Scalera
!!!END: 1992//
!!!EED: John Miller
!!!YEC: Copyright 2000, John Miller
!!!YEN: United States of America
!!!YEM: Rights to all derivative electronic formats reserved.
!!!YEM: Refer to licensing agreement for further details.
!!!YEM: This file must be accompanied by the licensing agreement.
!!!YEM: A copy of the licensing agreement may be found at http://www.music-cog.ohio-state.edu/HumdrumDatabases/Palestrina/license.txt
!!!EMD: converted to Humdrum by Bret Aarden
